X:247
T:The Lord's Prayer (new)
%%stretchlast false
M:4/4
L:1/4
K:Ab clef=C1
"^vi"[FAcf]2 "^IV"[DFda] "^ii"[B,Fdb]/ [B,Gdb]/ | "^iii+"[A,Acc'] "^vi¹"[A,Afc'] "^vii7"[G,Bfb] "^♭vi°¹"[G,B=eb] | "^vi¹"[A,cfa] "^vii°¹"[B,Bdg] "^vi²"[CAcf] "^V/vi"[CGc=e] | "^vi"[F,Acf]2 "^V/vi"[C=Ecg]2 | "^vi"[Fca] "^IV"[DAf] "^V/vi"[Cc=eg]2 | "^vi¹"[A,cfc']2 "^ii"[B,dfb] "^viiø7"[G,dfb] | "^vi¹"[A,cfa]3/2 "^♯vii"[B,cfa]/ "^III"[Cc=eg] "^III7"[CB=eg] | "^♯vii"[F,Af]4 | "^V/vi"[C=Ecg]2 "^vi"[Fca] "^V"[EGeb] | "^I"[Aec']2 "^V"[EGeb]3/2 "^V7³"[DGeb]/ | "^I¹"[CAea] "^IV"[DAdf] "^ii"[B,dfb] "^vi"[F,cfa] | "^III"[Cc=eg]2 "^iii+"[Ac]3/2 "^iii7²"[GBc]/ | "^vi"[FAcf] "^III"[CGc=e]/ "^III7"[CGB=e]/ "^IV"[DFAf]2 | "^viiø7"[G,Fdb]3/2 [G,=Edb]/ "^vi¹"[A,Fca] "^vii°¹"[B,Bdg] | "^vi²"[CAcf]2 "^III"[CGc=e] "^III7"[CGB=e] | "^♯vii"[F,FAf]4 |]
